X: 301
T: 1. La S\'egure ou lison
T: la S\'egure ou Lison
B: Robert Landrin "Potpourri fran\,cois des contre-danse ancienne tel quil se danse chez la Reine ..." 1760 p.30 #1 dance 10 #1
S: http://memory.loc.gov/cgi-bin/query/D?musdibib:2:./temp/~ammem_EbRS:
Z: 2014 John Chambers <jc:trillian.mit.edu>
M: 2/4
L: 1/16
K: G
% - - - - - - - - - - - - - - - - - - - - - - - - -
GABc |\
d2d2 cBcd | B2Bd c2A2 | B3GA3F | HG4 :|\
|: "4.F."D2DD |\
E2E2F2F2 | G2GG A2A2 | B3B ^c2c2 | Hd3dd2B2 |
B3dc2A2 | A3cB2G2 | !+!F2G2c2B2 | !+!B2A2 ddB2 |\
B3dc2A2 | A3c BAcB | A2G2A2!+!F2 | G4 :|
% - - - - - - - - - - - - - - - - - - - - - - - - -

%%sep 1 1 500
%%sep 1 1 500
